public/assets/img/playmarket.svg

<svg width="20" height="21" viewBox="0 0 20 21" fill="none" xmlns="http://www.w3.org/2000/svg">
<path fill-rule="evenodd" clip-rule="evenodd" d="M10 20.0786C4.47715 20.0786 0 15.6015 0 10.0786C0 4.55577 4.47715 0.0786133 10 0.0786133C15.5228 0.0786133 20 4.55577 20 10.0786C20 15.6015 15.5228 20.0786 10 20.0786ZM12.1367 10.1901L6.11832 4.09277C5.86973 4.14894 5.66602 4.36686 5.66602 4.80488V15.5965C5.66602 16.0091 5.82627 16.2992 6.12263 16.3281L12.1367 10.1901ZM12.4094 9.89994L14.0176 8.27094C14.0176 8.27094 7.02882 4.4088 6.61042 4.1776C6.4496 4.0887 6.27426 4.05768 6.11906 4.09269L12.4094 9.89994ZM12.6855 10.1799L14.5004 11.8305C14.5004 11.8305 16.5559 10.6908 16.6439 10.642C16.9406 10.4775 17.2515 10.0577 16.6439 9.72211C16.4895 9.6367 14.5098 8.54297 14.5098 8.54297L12.6855 10.1799ZM6.12305 16.3278C6.25886 16.3453 6.42221 16.3089 6.6101 16.2047C6.99909 15.989 11.1765 13.6729 14.0191 12.0969L12.4091 10.4336L6.12305 16.3278Z" fill="#ACBDCE"/>
</svg>

<svg width="20" height="21" fill="none" xmlns="http://www.w3.org/2000/svg"><path fill-rule="evenodd" clip-rule="evenodd" d="M10 20.079c-5.523 0-10-4.478-10-10 0-5.523 4.477-10 10-10s10 4.477 10 10c0 5.522-4.477 10-10 10Zm2.137-9.889L6.118 4.093c-.248.056-.452.274-.452.712v10.792c0 .412.16.702.457.731l6.014-6.138Zm.272-.29 1.609-1.63L6.61 4.179a.706.706 0 0 0-.49-.085L12.41 9.9Zm.276.28 1.815 1.65 2.144-1.188c.297-.165.608-.584 0-.92L14.51 8.543l-1.825 1.637Zm-6.562 6.148c.136.017.3-.02.487-.123l7.41-4.108-1.61-1.663-6.287 5.894Z" fill="#ACBDCE"/></svg>
